X: 141
T: The Wedding Reel
T:Macleod’s Farewell
C:Donald Shaw
M:4/4
R:reel
L:1/8
K:D
DE|:"D"F2BF AFEF| D2 DE FABd|"Em"e2 fd efdB|"D" ABde "G"dBAG|
"D"F2BF AFEF| D2 DE FABd|"Em"e2fd efdB|1"D" ABde d2DE :|2"D" ABde d3B ||
|: "D"A3f efdB|A3f efdB|ABdA BdAB|dBAF "A"E2 DE|
"D"F2BF AFEF| D2DE FABd|"Em" e2fd efdB|1"D" ABde d3B:|2"D" ABde d2|]


